SVG_Azure_Grouped/Management/Recovery Services Plan.svg

<?xml version="1.0" encoding="UTF-8" standalone="no"?>
<!-- Generated by Microsoft Visio, SVG Export Recovery Services Plan.svg Page-1 -->

<svg
   xmlns:dc="http://purl.org/dc/elements/1.1/"
   xmlns:cc="http://creativecommons.org/ns#"
   xmlns:rdf="http://www.w3.org/1999/02/22-rdf-syntax-ns#"
   xmlns:svg="http://www.w3.org/2000/svg"
   xmlns="http://www.w3.org/2000/svg"
   xmlns:sodipodi="http://sodipodi.sourceforge.net/DTD/sodipodi-0.dtd"
   xmlns:inkscape="http://www.inkscape.org/namespaces/inkscape"
   width="0.7086575in"
   height="0.78739738in"
   viewBox="0 0 51.023392 56.692899"
   xml:space="preserve"
   class="st3"
   version="1.1"
   id="svg29"
   sodipodi:docname="Recovery Services Plan.svg"
   style="font-size:12px;overflow:visible;color-interpolation-filters:sRGB;fill:none;fill-rule:evenodd;stroke-linecap:square;stroke-miterlimit:3"
   inkscape:version="0.92.5 (2060ec1f9f, 2020-04-08)"><metadata
   id="metadata35"><rdf:RDF><cc:Work
       rdf:about=""><dc:format>image/svg+xml</dc:format><dc:type
         rdf:resource="http://purl.org/dc/dcmitype/StillImage" /></cc:Work></rdf:RDF></metadata><defs
   id="defs33" /><sodipodi:namedview
   pagecolor="#ffffff"
   bordercolor="#666666"
   borderopacity="1"
   objecttolerance="10"
   gridtolerance="10"
   guidetolerance="10"
   inkscape:pageopacity="0"
   inkscape:pageshadow="2"
   inkscape:window-width="640"
   inkscape:window-height="480"
   id="namedview31"
   showgrid="false"
   inkscape:zoom="1.7193066"
   inkscape:cx="34.01556"
   inkscape:cy="23.277747"
   inkscape:window-x="0"
   inkscape:window-y="0"
   inkscape:window-maximized="0"
   inkscape:current-layer="svg29" />
	<style
   type="text/css"
   id="style2">
	<![CDATA[
		.st1 {fill:#59b4d9;stroke:none;stroke-linecap:butt;stroke-width:12.24}
		.st2 {fill:#ffffff;stroke:none;stroke-linecap:butt;stroke-width:12.24}
		.st3 {fill:none;fill-rule:evenodd;font-size:12px;overflow:visible;stroke-linecap:square;stroke-miterlimit:3}
	]]>
	</style>

	<g
   id="g27"
   transform="translate(-12.240154,-12.239999)">
		<title
   id="title4">Page-1</title>
		<g
   id="group12169-1"
   transform="translate(12.24,-34.0157)">
			<title
   id="title6">Recovery Services Plan.12169</title>
			<g
   id="group12170-2">
				<title
   id="title8">Sheet.12170</title>
				<g
   id="shape12171-3">
					<title
   id="title10">Sheet.12171</title>
					<rect
   x="0"
   y="46.255699"
   width="51.023602"
   height="56.692902"
   class="st1"
   id="rect12"
   style="fill:#59b4d9;stroke:none;stroke-width:12.23999977;stroke-linecap:butt" />
				</g>
				<g
   id="shape12172-5"
   transform="translate(3.47888,-3.40157)">
					<title
   id="title15">Sheet.12172</title>
					<path
   d="m 0,53.06 v 49.89 H 44.07 V 53.06 Z m 41.75,47.62 H 2.32 V 55.33 h 39.43 z"
   class="st2"
   id="path17"
   inkscape:connector-curvature="0"
   style="fill:#ffffff;stroke:none;stroke-width:12.23999977;stroke-linecap:butt" />
				</g>
				<g
   id="shape12173-7"
   transform="translate(8.58125,-11.1118)">
					<title
   id="title20">Sheet.12173</title>
					<path
   d="m 8.81,67.57 h 25.51 v 2.27 H 8.81 Z m 5.8,4.54 h 19.71 v 2.27 H 14.61 Z m -5.8,9.07 h 25.51 v 2.27 H 8.81 Z m 5.8,4.53 h 19.71 v 2.27 H 14.61 Z m -5.8,9.07 h 25.51 v 2.27 H 8.81 Z m 5.8,4.54 h 19.71 v 2.27 H 14.61 Z M 2.9,67.46 h 1.27 v 6.35 h 1.28 v 1.25 H 1.16 v -1.25 h 1.28 v -4.42 c -0.35,0.34 -0.82,0.68 -1.28,0.9 V 68.82 C 1.86,68.48 2.44,68.03 2.9,67.46 Z M 1.97,84.24 0.46,83.9 c 0.24,-1.7 1.16,-2.49 2.56,-2.49 0.81,0 1.39,0.22 1.73,0.68 0.47,0.45 0.58,0.9 0.58,1.58 0,0.68 -0.23,1.25 -0.69,1.82 -0.47,0.56 -1.28,1.36 -2.55,2.15 H 5.45 L 5.33,89.12 H 0.35 v -1.48 c 1.39,-1.13 2.32,-2.04 2.67,-2.49 0.34,-0.46 0.57,-0.91 0.57,-1.36 0,-0.68 -0.23,-0.91 -0.69,-0.91 -0.35,0 -0.46,0.11 -0.58,0.34 -0.23,0.23 -0.35,0.57 -0.35,1.02 z M 1.86,97.28 0.35,97.05 c 0.35,-1.24 1.27,-1.92 2.55,-1.92 0.69,0 1.27,0.22 1.62,0.56 0.35,0.34 0.58,0.91 0.58,1.48 0,0.79 -0.35,1.36 -1.16,1.7 0.81,0.22 1.28,0.9 1.28,1.81 0,0.79 -0.23,1.36 -0.7,1.7 -0.46,0.34 -1.04,0.57 -1.85,0.57 -0.7,0 -1.28,-0.23 -1.74,-0.45 C 0.46,102.15 0.12,101.59 0,100.79 l 1.51,-0.22 c 0.11,0.79 0.46,1.13 1.04,1.13 0.23,0 0.47,-0.11 0.7,-0.23 0.11,-0.22 0.23,-0.45 0.23,-0.79 0,-0.68 -0.35,-1.02 -1.16,-1.02 H 1.86 v -1.47 h 0.46 c 0.23,0 0.46,0 0.58,-0.12 0.12,0 0.23,-0.11 0.35,-0.34 0.11,-0.11 0.11,-0.34 0.11,-0.56 0,-0.57 -0.23,-0.91 -0.81,-0.91 -0.23,0.11 -0.58,0.34 -0.69,1.02 z"
   class="st2"
   id="path22"
   inkscape:connector-curvature="0"
   style="fill:#ffffff;stroke:none;stroke-width:12.23999977;stroke-linecap:butt" />
				</g>
			</g>
		</g>
	</g>
</svg>

<?xml version="1.0" encoding="UTF-8" standalone="no"?>
<!DOCTYPE svg PUBLIC "-//W3C//DTD SVG 1.1//EN" "http://www.w3.org/Graphics/SVG/1.1/DTD/svg11.dtd">
<!-- Generated by Microsoft Visio, SVG Export Recovery Services Plan.svg Page-1 -->
<svg xmlns="http://www.w3.org/2000/svg" xmlns:xlink="http://www.w3.org/1999/xlink" xmlns:ev="http://www.w3.org/2001/xml-events"
		width="1.04866in" height="1.42984in" viewBox="0 0 75.5036 102.949" xml:space="preserve" color-interpolation-filters="sRGB"
		class="st3">
	<style type="text/css">
	<![CDATA[
		.st1 {fill:#59b4d9;stroke:none;stroke-linecap:butt;stroke-width:12.24}
		.st2 {fill:#ffffff;stroke:none;stroke-linecap:butt;stroke-width:12.24}
		.st3 {fill:none;fill-rule:evenodd;font-size:12px;overflow:visible;stroke-linecap:square;stroke-miterlimit:3}
	]]>
	</style>

	<g>
		<title>Page-1</title>
		<g id="group11890-1" transform="translate(12.24,-34.0157)">
			<title>Recovery Services Plan.11890</title>
			<g id="group11891-2">
				<title>Sheet.11891</title>
				<g id="shape11892-3">
					<title>Sheet.11892</title>
					<rect x="0" y="46.2557" width="51.0236" height="56.6929" class="st1"/>
				</g>
				<g id="shape11893-5" transform="translate(3.47888,-3.40157)">
					<title>Sheet.11893</title>
					<path d="M0 53.06 L0 102.95 L44.07 102.95 L44.07 53.06 L0 53.06 ZM41.75 100.68 L2.32 100.68 L2.32 55.33 L41.75
								 55.33 L41.75 100.68 Z" class="st2"/>
				</g>
				<g id="shape11894-7" transform="translate(8.58125,-11.1118)">
					<title>Sheet.11894</title>
					<path d="M8.81 67.57 L34.32 67.57 L34.32 69.84 L8.81 69.84 L8.81 67.57 ZM14.61 72.11 L34.32 72.11 L34.32 74.38
								 L14.61 74.38 L14.61 72.11 ZM8.81 81.18 L34.32 81.18 L34.32 83.45 L8.81 83.45 L8.81 81.18 ZM14.61
								 85.71 L34.32 85.71 L34.32 87.98 L14.61 87.98 L14.61 85.71 ZM8.81 94.78 L34.32 94.78 L34.32 97.05
								 L8.81 97.05 L8.81 94.78 ZM14.61 99.32 L34.32 99.32 L34.32 101.59 L14.61 101.59 L14.61 99.32 ZM2.9
								 67.46 L4.17 67.46 L4.17 73.81 L5.45 73.81 L5.45 75.06 L1.16 75.06 L1.16 73.81 L2.44 73.81 L2.44
								 69.39 C2.09 69.73 1.62 70.07 1.16 70.29 L1.16 68.82 C1.86 68.48 2.44 68.03 2.9 67.46 ZM1.97 84.24
								 L0.46 83.9 C0.7 82.2 1.62 81.41 3.02 81.41 C3.83 81.41 4.41 81.63 4.75 82.09 C5.22 82.54 5.33 82.99
								 5.33 83.67 C5.33 84.35 5.1 84.92 4.64 85.49 C4.17 86.05 3.36 86.85 2.09 87.64 L5.45 87.64 L5.33
								 89.12 L0.35 89.12 L0.35 87.64 C1.74 86.51 2.67 85.6 3.02 85.15 C3.36 84.69 3.59 84.24 3.59 83.79
								 C3.59 83.11 3.36 82.88 2.9 82.88 C2.55 82.88 2.44 82.99 2.32 83.22 C2.09 83.45 1.97 83.79 1.97 84.24
								 ZM1.86 97.28 L0.35 97.05 C0.7 95.81 1.62 95.13 2.9 95.13 C3.59 95.13 4.17 95.35 4.52 95.69 C4.87
								 96.03 5.1 96.6 5.1 97.17 C5.1 97.96 4.75 98.53 3.94 98.87 C4.75 99.09 5.22 99.77 5.22 100.68 C5.22
								 101.47 4.99 102.04 4.52 102.38 C4.06 102.72 3.48 102.95 2.67 102.95 C1.97 102.95 1.39 102.72 0.93
								 102.5 C0.46 102.15 0.12 101.59 0 100.79 L1.51 100.57 C1.62 101.36 1.97 101.7 2.55 101.7 C2.78 101.7
								 3.02 101.59 3.25 101.47 C3.36 101.25 3.48 101.02 3.48 100.68 C3.48 100 3.13 99.66 2.32 99.66 L1.86
								 99.66 L1.86 98.19 L2.32 98.19 C2.55 98.19 2.78 98.19 2.9 98.07 C3.02 98.07 3.13 97.96 3.25 97.73
								 C3.36 97.62 3.36 97.39 3.36 97.17 C3.36 96.6 3.13 96.26 2.55 96.26 C2.32 96.37 1.97 96.6 1.86 97.28
								 Z" class="st2"/>
				</g>
			</g>
		</g>
	</g>
</svg>
